src/activities/event/1F390.svg

<svg id="emoji" viewBox="0 0 72 72" xmlns="http://www.w3.org/2000/svg">
  <g id="grid">
    <path fill="#b3b3b3" d="M68,4V68H4V4H68m4-4H0V72H72V0Z"/>
    <path fill="none" stroke="#00a5ff" stroke-miterlimit="10" stroke-width="0.1" d="M12.923,10.9583H59.0769A1.9231,1.9231,0,0,1,61,12.8814V59.0352a1.9231,1.9231,0,0,1-1.9231,1.9231H12.9231A1.9231,1.9231,0,0,1,11,59.0352V12.8813A1.923,1.923,0,0,1,12.923,10.9583Z"/>
    <rect x="16" y="4" rx="2.2537" width="40" height="64" fill="none" stroke="#00a5ff" stroke-miterlimit="10" stroke-width="0.1"/>
    <rect x="16" y="4" rx="2.2537" width="40" height="64" transform="translate(72) rotate(90)" fill="none" stroke="#00a5ff" stroke-miterlimit="10" stroke-width="0.1"/>
    <circle cx="36" cy="36" r="29" fill="none" stroke="#00a5ff" stroke-miterlimit="10" stroke-width="0.1"/>
  </g>
  <g id="color">
    <g>
      <path fill="#92d3f5" d="M55.1767,38.6265a19.6726,19.6726,0,0,0,.4943-9.2146A19.9973,19.9973,0,0,0,16,33a19.7418,19.7418,0,0,0,.8242,5.63,2.0054,2.0054,0,0,0,1.9234,1.4292H53.2521A2.0071,2.0071,0,0,0,55.1767,38.6265Z"/>
      <path fill="#f1b31c" d="M39,41a3,3,0,0,1-6,0"/>
      <path fill="#d0cfce" d="M16,54a14.4232,14.4232,0,0,0,14-4l4,6a14.4232,14.4232,0,0,1-14,4Z"/>
    </g>
  </g>
  <g id="line">
    <g>
      <path fill="none" stroke="#000" stroke-miterlimit="10" stroke-width="2" d="M55.1767,38.6265a19.6726,19.6726,0,0,0,.4943-9.2146A19.9973,19.9973,0,0,0,16,33a19.7418,19.7418,0,0,0,.8242,5.63,2.0054,2.0054,0,0,0,1.9234,1.4292H53.2521A2.0071,2.0071,0,0,0,55.1767,38.6265Z"/>
      <path fill="none" stroke="#000" stroke-linecap="round" stroke-miterlimit="10" stroke-width="2" d="M36,13s.7889-4.1056-1-5"/>
      <path fill="none" stroke="#000" stroke-miterlimit="10" stroke-width="2" d="M36,44s1,6-4,9"/>
      <path fill="none" stroke="#000" stroke-miterlimit="10" stroke-width="2" d="M39,41a3,3,0,0,1-6,0"/>
      <path fill="none" stroke="#000" stroke-linejoin="round" stroke-width="2" d="M16,54a14.4232,14.4232,0,0,0,14-4l4,6a14.4232,14.4232,0,0,1-14,4Z"/>
    </g>
  </g>
</svg>

<svg viewBox="0 0 72 72" xmlns="http://www.w3.org/2000/svg"><path fill="#b3b3b3" d="M68 4v64H4V4h64m4-4H0v72h72V0z"/><path fill="none" stroke="#00a5ff" stroke-miterlimit="10" stroke-width=".1" d="M12.923 10.958h46.154A1.923 1.923 0 0161 12.881v46.154a1.923 1.923 0 01-1.923 1.923H12.923A1.923 1.923 0 0111 59.035V12.881a1.923 1.923 0 011.923-1.923z"/><rect x="16" y="4" rx="2.254" width="40" height="64" fill="none" stroke="#00a5ff" stroke-miterlimit="10" stroke-width=".1"/><rect x="16" y="4" rx="2.254" width="40" height="64" transform="rotate(90 36 36)" fill="none" stroke="#00a5ff" stroke-miterlimit="10" stroke-width=".1"/><circle cx="36" cy="36" r="29" fill="none" stroke="#00a5ff" stroke-miterlimit="10" stroke-width=".1"/><g stroke-linecap="round" stroke-miterlimit="10" stroke-width="6" stroke="#fff" fill="none" stroke-linejoin="round"><path d="M55.177 38.627a19.673 19.673 0 00.494-9.215A19.997 19.997 0 0016 33a19.742 19.742 0 00.824 5.63 2.005 2.005 0 001.924 1.43h34.504a2.007 2.007 0 001.925-1.434zM36 13s.789-4.106-1-5m1 36s1 6-4 9m7-12a3 3 0 01-6 0"/><path d="M16 54a14.423 14.423 0 0014-4l4 6a14.423 14.423 0 01-14 4z"/></g><path fill="#92d3f5" d="M55.177 38.627a19.673 19.673 0 00.494-9.215A19.997 19.997 0 0016 33a19.742 19.742 0 00.824 5.63 2.005 2.005 0 001.924 1.43h34.504a2.007 2.007 0 001.925-1.434z"/><path fill="#f1b31c" d="M39 41a3 3 0 01-6 0"/><path fill="#d0cfce" d="M16 54a14.423 14.423 0 0014-4l4 6a14.423 14.423 0 01-14 4z"/><g><g fill="none" stroke="#000" stroke-width="2"><path stroke-miterlimit="10" d="M55.177 38.627a19.673 19.673 0 00.494-9.215A19.997 19.997 0 0016 33a19.742 19.742 0 00.824 5.63 2.005 2.005 0 001.924 1.43h34.504a2.007 2.007 0 001.925-1.434z"/><path stroke-linecap="round" stroke-miterlimit="10" d="M36 13s.789-4.106-1-5"/><path stroke-miterlimit="10" d="M36 44s1 6-4 9m7-12a3 3 0 01-6 0"/><path stroke-linejoin="round" d="M16 54a14.423 14.423 0 0014-4l4 6a14.423 14.423 0 01-14 4z"/></g></g></svg>
